korla/apps/scalable/wps-office2019-kprometheus.svg

<svg width="48" height="48" xmlns="http://www.w3.org/2000/svg">
 <path d="m24.610406 4.0000005v2e-3a4.6925004 4.6615814 0 0 0-2.457032 0.6206053l-13.806749 7.9196982a4.6925004 4.6615814 0 0 0-2.3466254 4.037927v15.839397a4.6925004 4.6615814 0 0 0 2.3466254 4.035924l13.806749 7.919699a4.6925004 4.6615814 0 0 0 4.693251 0l13.80675-7.919699a4.6925004 4.6615814 0 0 0 2.346625-4.035924v-15.839397a4.6925004 4.6615814 0 0 0-2.346625-4.037927l-13.80675-7.9196982a4.6925004 4.6615814 0 0 0-2.236219-0.6226053z" opacity=".2"/>
 <path d="m24.610406 3.0000003v2e-3a4.6925004 4.6615814 0 0 0-2.457032 0.6206053l-13.806749 7.9196984a4.6925004 4.6615814 0 0 0-2.3466254 4.037927v15.839397a4.6925004 4.6615814 0 0 0 2.3466254 4.035924l13.806749 7.919699a4.6925004 4.6615814 0 0 0 4.693251 0l13.80675-7.919699a4.6925004 4.6615814 0 0 0 2.346625-4.035924v-15.839397a4.6925004 4.6615814 0 0 0-2.346625-4.037927l-13.80675-7.9196984a4.6925004 4.6615814 0 0 0-2.236219-0.6226053z" fill="#2975e6"/>
 <path d="m12.5 17.000098a1.50015 1.50015 0 0 0 -1.332031 2.189453l7.251953 14a1.50015 1.50015 0 0 0 2.617187.08398l2.390625-3.972657.667969-1.111328 1.800781-2.994141.933594-1.552734 2.191406-3.642578h4.828125l-5.673828 9.458984-1.730469-3.236328-1.800781 2.992188 2.132813 3.992187a1.50015 1.50015 0 0 0 2.609375.06445l8.40039-14a1.50015 1.50015 0 0 0 -1.287109-2.271476h-8.326172a1.50015 1.50015 0 0 0 -1.285156.726562l-2.013672 3.345704-.558594.929687-1.8125 3.015625-.732422 1.216797-1.921875 3.193359-4.882812-9.427734h4.927734l2.06836 3.976562 1.8125-3.013671-1.640625-3.154297a1.50015 1.50015 0 0 0 -1.330078-.808594z" opacity=".2"/>
 <g fill="#fff">
  <path d="m12.5 16a1.50015 1.50015 0 0 0 -1.332031 2.189453l7.251953 14a1.50015 1.50015 0 0 0 2.617187.083985l2.390625-3.972657.667969-1.111328 1.800781-2.994141.933594-1.552734 2.191406-3.642578h4.828125l-5.673828 9.458984-1.730469-3.236328-1.800781 2.992188 2.132813 3.992187a1.50015 1.50015 0 0 0 2.609375.064453l8.40039-14a1.50015 1.50015 0 0 0 -1.287109-2.271484h-8.326172a1.50015 1.50015 0 0 0 -1.285156.726562l-2.013672 3.345704-.558594.929687-1.8125 3.015625-.732422 1.216797-1.921875 3.193359-4.882812-9.427734h4.927734l2.06836 3.976562 1.8125-3.013671-1.640625-3.154297a1.50015 1.50015 0 0 0 -1.330078-.808594z"/>
  <path d="m24.611328 3v.0019531a4.6925004 4.6615814 0 0 0 -2.457031.6210938l-13.8085939 7.9199221a4.6925004 4.6615814 0 0 0 -2.3457031 4.037109v1a4.6925004 4.6615814 0 0 1 2.3457031-4.037109l13.8085939-7.9199221a4.6925004 4.6615814 0 0 1 2.457031-.6210938v-.0019531a4.6925004 4.6615814 0 0 1 2.234375.6230469l13.808594 7.9199221a4.6925004 4.6615814 0 0 1 2.345703 4.037109v-1a4.6925004 4.6615814 0 0 0 -2.345703-4.037109l-13.808594-7.9199221a4.6925004 4.6615814 0 0 0 -2.234375-.6230469z" opacity=".2"/>
 </g>
</svg>

<svg xmlns="http://www.w3.org/2000/svg" width="48" height="48" version="1">
 <path style="opacity:0.2" d="m 24.610406,4.0000005 v 0.002 A 4.6925004,4.6615814 0 0 0 22.153374,4.6226058 L 8.3466254,12.542304 A 4.6925004,4.6615814 0 0 0 6,16.580231 v 15.839397 a 4.6925004,4.6615814 0 0 0 2.3466254,4.035924 l 13.8067486,7.919699 a 4.6925004,4.6615814 0 0 0 4.693251,0 l 13.80675,-7.919699 A 4.6925004,4.6615814 0 0 0 43,32.419628 V 16.580231 A 4.6925004,4.6615814 0 0 0 40.653375,12.542304 L 26.846625,4.6226058 A 4.6925004,4.6615814 0 0 0 24.610406,4.0000005 Z"/>
 <path style="fill:#2975e6" d="m 24.610406,3.0000003 v 0.002 A 4.6925004,4.6615814 0 0 0 22.153374,3.6226056 L 8.3466254,11.542304 A 4.6925004,4.6615814 0 0 0 6,15.580231 v 15.839397 a 4.6925004,4.6615814 0 0 0 2.3466254,4.035924 l 13.8067486,7.919699 a 4.6925004,4.6615814 0 0 0 4.693251,0 l 13.80675,-7.919699 A 4.6925004,4.6615814 0 0 0 43,31.419628 V 15.580231 A 4.6925004,4.6615814 0 0 0 40.653375,11.542304 L 26.846625,3.6226056 A 4.6925004,4.6615814 0 0 0 24.610406,3.0000003 Z"/>
 <path style="opacity:0.2" d="m 12.5,17.000098 a 1.50015,1.50015 0 0 0 -1.332031,2.189453 l 7.251953,14 a 1.50015,1.50015 0 0 0 2.617187,0.08398 l 2.390625,-3.972657 0.667969,-1.111328 1.800781,-2.994141 0.933594,-1.552734 2.191406,-3.642578 h 4.828125 l -5.673828,9.458984 -1.730469,-3.236328 -1.800781,2.992188 2.132813,3.992187 a 1.50015,1.50015 0 0 0 2.609375,0.06445 l 8.40039,-14 A 1.50015,1.50015 0 0 0 36.5,17.000098 h -8.326172 a 1.50015,1.50015 0 0 0 -1.285156,0.726562 l -2.013672,3.345704 -0.558594,0.929687 -1.8125,3.015625 -0.732422,1.216797 -1.921875,3.193359 -4.882812,-9.427734 h 4.927734 l 2.06836,3.976562 1.8125,-3.013671 -1.640625,-3.154297 a 1.50015,1.50015 0 0 0 -1.330078,-0.808594 z"/>
 <path style="fill:#ffffff" d="M 12.5 16 A 1.50015 1.50015 0 0 0 11.167969 18.189453 L 18.419922 32.189453 A 1.50015 1.50015 0 0 0 21.037109 32.273438 L 23.427734 28.300781 L 24.095703 27.189453 L 25.896484 24.195312 L 26.830078 22.642578 L 29.021484 19 L 33.849609 19 L 28.175781 28.458984 L 26.445312 25.222656 L 24.644531 28.214844 L 26.777344 32.207031 A 1.50015 1.50015 0 0 0 29.386719 32.271484 L 37.787109 18.271484 A 1.50015 1.50015 0 0 0 36.5 16 L 28.173828 16 A 1.50015 1.50015 0 0 0 26.888672 16.726562 L 24.875 20.072266 L 24.316406 21.001953 L 22.503906 24.017578 L 21.771484 25.234375 L 19.849609 28.427734 L 14.966797 19 L 19.894531 19 L 21.962891 22.976562 L 23.775391 19.962891 L 22.134766 16.808594 A 1.50015 1.50015 0 0 0 20.804688 16 L 12.5 16 z"/>
 <path style="fill:#ffffff;opacity:0.2" d="M 24.611328 3 L 24.611328 3.0019531 A 4.6925004 4.6615814 0 0 0 22.154297 3.6230469 L 8.3457031 11.542969 A 4.6925004 4.6615814 0 0 0 6 15.580078 L 6 16.580078 A 4.6925004 4.6615814 0 0 1 8.3457031 12.542969 L 22.154297 4.6230469 A 4.6925004 4.6615814 0 0 1 24.611328 4.0019531 L 24.611328 4 A 4.6925004 4.6615814 0 0 1 26.845703 4.6230469 L 40.654297 12.542969 A 4.6925004 4.6615814 0 0 1 43 16.580078 L 43 15.580078 A 4.6925004 4.6615814 0 0 0 40.654297 11.542969 L 26.845703 3.6230469 A 4.6925004 4.6615814 0 0 0 24.611328 3 z"/>
</svg>
